exported-svg/move.svg

<svg height="24" viewBox="0 0 24 24" width="24" xmlns="http://www.w3.org/2000/svg"><path d="m3.70710678 12h8.29289322v-8.29289322l-2.14644661 2.14644661c-.19526215.19526215-.51184463.19526215-.70710678 0s-.19526215-.51184463 0-.70710678l2.99999999-3c.1952622-.19526215.5118446-.19526215.7071068 0l3 3c.1952621.19526215.1952621.51184463 0 .70710678-.1952622.19526215-.5118446.19526215-.7071068 0l-2.1464466-2.14644661v8.29289322h8.2928932l-2.1464466-2.14644661c-.1952621-.19526215-.1952621-.51184463 0-.70710678.1952622-.19526215.5118446-.19526215.7071068 0l3 2.99999999c.1952621.1952622.1952621.5118446 0 .7071068l-3 3c-.1952622.1952621-.5118446.1952621-.7071068 0-.1952621-.1952622-.1952621-.5118446 0-.7071068l2.1464466-2.1464466h-8.2928932v8.2928932l2.1464466-2.1464466c.1952622-.1952621.5118446-.1952621.7071068 0 .1952621.1952622.1952621.5118446 0 .7071068l-3 3c-.1952622.1952621-.5118446.1952621-.7071068 0l-2.99999999-3c-.19526215-.1952622-.19526215-.5118446 0-.7071068.19526215-.1952621.51184463-.1952621.70710678 0l2.14644661 2.1464466v-8.2928932h-8.29289322l2.14644661 2.1464466c.19526215.1952622.19526215.5118446 0 .7071068-.19526215.1952621-.51184463.1952621-.70710678 0l-3-3c-.19526215-.1952622-.19526215-.5118446 0-.7071068l3-2.99999999c.19526215-.19526215.51184463-.19526215.70710678 0s.19526215.51184463 0 .70710678z"/></svg>

<?xml version="1.0" encoding="UTF-8"?>
<svg width="24px" height="24px" viewBox="0 0 24 24" version="1.1" xmlns="http://www.w3.org/2000/svg" xmlns:xlink="http://www.w3.org/1999/xlink">
    <!-- Generator: Sketch 55.2 (78181) - https://sketchapp.com -->
    <title>move</title>
    <desc>Created with Sketch.</desc>
    <g id="move" stroke="none" stroke-width="1" fill="none" fill-rule="evenodd">
        <path d="M3.70710678,12 L12,12 L12,3.70710678 L9.85355339,5.85355339 C9.65829124,6.04881554 9.34170876,6.04881554 9.14644661,5.85355339 C8.95118446,5.65829124 8.95118446,5.34170876 9.14644661,5.14644661 L12.1464466,2.14644661 C12.3417088,1.95118446 12.6582912,1.95118446 12.8535534,2.14644661 L15.8535534,5.14644661 C16.0488155,5.34170876 16.0488155,5.65829124 15.8535534,5.85355339 C15.6582912,6.04881554 15.3417088,6.04881554 15.1464466,5.85355339 L13,3.70710678 L13,12 L21.2928932,12 L19.1464466,9.85355339 C18.9511845,9.65829124 18.9511845,9.34170876 19.1464466,9.14644661 C19.3417088,8.95118446 19.6582912,8.95118446 19.8535534,9.14644661 L22.8535534,12.1464466 C23.0488155,12.3417088 23.0488155,12.6582912 22.8535534,12.8535534 L19.8535534,15.8535534 C19.6582912,16.0488155 19.3417088,16.0488155 19.1464466,15.8535534 C18.9511845,15.6582912 18.9511845,15.3417088 19.1464466,15.1464466 L21.2928932,13 L13,13 L13,21.2928932 L15.1464466,19.1464466 C15.3417088,18.9511845 15.6582912,18.9511845 15.8535534,19.1464466 C16.0488155,19.3417088 16.0488155,19.6582912 15.8535534,19.8535534 L12.8535534,22.8535534 C12.6582912,23.0488155 12.3417088,23.0488155 12.1464466,22.8535534 L9.14644661,19.8535534 C8.95118446,19.6582912 8.95118446,19.3417088 9.14644661,19.1464466 C9.34170876,18.9511845 9.65829124,18.9511845 9.85355339,19.1464466 L12,21.2928932 L12,13 L3.70710678,13 L5.85355339,15.1464466 C6.04881554,15.3417088 6.04881554,15.6582912 5.85355339,15.8535534 C5.65829124,16.0488155 5.34170876,16.0488155 5.14644661,15.8535534 L2.14644661,12.8535534 C1.95118446,12.6582912 1.95118446,12.3417088 2.14644661,12.1464466 L5.14644661,9.14644661 C5.34170876,8.95118446 5.65829124,8.95118446 5.85355339,9.14644661 C6.04881554,9.34170876 6.04881554,9.65829124 5.85355339,9.85355339 L3.70710678,12 Z" id="Combined-Shape" fill="#000000" fill-rule="nonzero"></path>
    </g>
</svg>
